X: 2114
T: Çırpınırdı Karadeniz
C: Üzeyir Hacıbeyli
O: Turkey
F: http://compmusic.upf.edu/node/140
N: huzzam--turku--ikizaksak--cirpinirdi_karadeniz--uzeyir_hacibeyov
N: makam= huzzam
N: form= turku
N: usul= ikizaksak = 12/8
M: 12/8
L: 1/16
K: C _1/4B _3/4e ^3/4f 
Q: 1/4=144
%%MIDI tuningsystem comma53
Bcde fgfe dcB2 d2cd cBd2 d2d2  | Bcde fgfe dcB2 d2cd cBB6  | 
w:  ARANAĞME  |   | 
Bcde fgfe dcB2 d2cd cBd2 d2d2  | Bcde fgfe dcB2 d2cd cBB6  | 
w:  ARANAĞME  |   | 
g2f2 g2f4g4f2 g2f6  | g2f2 g2f4a2 gffe edd6  | \
w:  Çır pı nır dı  Ka ra de niz    |  Ba kıp  Tür kün  bay *  *  ra *  ğı *  na    | 
g2f2 g2f4g4f2 g2f6  | 
w:  Çır pı nır dı  Ka ra de niz    | 
g2f2 g2f4a2 gffe edd6  | g2f3ed3ef3ed2 dcB6  | 
w:  Ba kıp  Tür kün  bay *  *  ra *  ğı *  na    |  Ah  öl me den  *  bir  *  gör sey *  dim    | 
e2d2 e2f2 edd3cdc cBB6  | g2f3ed3ef3ed2 dcB6  | 
w:  Dü şe bil sem  *  *  a *  ya *  ğı *  na    |  Ah  öl me den  *  bir  *  gör sey *  dim    | 
e2d2 e2f2 edd3cdc cBB6  | Bcde fgfe dcB2 d2cd cBd2 d2d2  | 
w:  Dü şe bil sem  *  *  a *  ya *  ğı *  na    |  ARANAĞME  | 
Bcde fgfe dcB2 d2cd cBB6  | Bcde fgfe dcB2 d2cd cBd2 d2d2  | 
w:   |  ARANAĞME  | 
Bcde fgfe dcB2 d2cd cBB6  | g2f2 g2f4g4f2 g2f6  | 
w:   |  Çır pı nır dı  Ka ra de niz    | 
g2f2 g2f4a2 gffe edd6  | g2f2 g2f4g4f2 g2f6  | \
w:  Ba kıp  Tür kün  bay *  *  ra *  ğı *  na    |  Çır pı nır dı  Ka ra de niz    | 
g2f2 g2f4a2 gffe edd6  | 
w:  Ba kıp  Tür kün  bay *  *  ra *  ğı *  na    | 
g2f3ed3ef3ed2 dcB6  | e2d2 e2f2 edd3cdc cBB6  | 
w:  Ah  öl me den  *  bir  *  gör sey *  dim    |  Dü şe bil sem  *  *  a *  ya *  ğı *  na    | 
g2f3ed3ef3ed2 dcB6  | e2d2 e2f2 edd3cdc cBB6  | 
w:  Ah  öl me den  *  bir  *  gör sey *  dim    |  Dü şe bil sem  *  *  a *  ya *  ğı *  na    | 
|


